public/library/base-icon-dark.svg

<svg width="64" height="64" viewBox="0 0 64 64" fill="none" xmlns="http://www.w3.org/2000/svg">
<g clip-path="url(#clip0_4897_2995)">
<circle cx="32" cy="32" r="32" fill="#FBFBFB"/>
<path fill-rule="evenodd" clip-rule="evenodd" d="M57.7777 31.9999C57.7183 38.6689 55.117 45.0602 50.5111 49.8532C45.9053 54.6463 39.6468 57.4749 33.0288 57.7548C26.4108 58.0347 19.9388 55.7443 14.95 51.357C9.96122 46.9697 6.83677 40.8206 6.22217 34.1801H40.366V29.8198H6.22217C6.83677 23.1793 9.96122 17.0302 14.95 12.6429C19.9388 8.25555 26.4108 5.96524 33.0288 6.2451C39.6468 6.52496 45.9053 9.35362 50.5111 14.1467C55.117 18.9397 57.7183 25.331 57.7777 31.9999Z" fill="#0052FE"/>
</g>
<defs>
<clipPath id="clip0_4897_2995">
<rect width="64" height="64" fill="white"/>
</clipPath>
</defs>
</svg>

<svg xmlns="http://www.w3.org/2000/svg" width="64" height="64" fill="none" viewBox="0 0 64 64"><g clip-path="url(#a)"><circle cx="32" cy="32" r="32" fill="#fbfbfb"/><path fill="#0052fe" fill-rule="evenodd" d="M57.778 32a26.1 26.1 0 0 1-7.267 17.853 25.76 25.76 0 0 1-17.482 7.902 25.73 25.73 0 0 1-18.079-6.398A26.07 26.07 0 0 1 6.222 34.18h34.144v-4.36H6.222a26.07 26.07 0 0 1 8.728-17.177 25.73 25.73 0 0 1 18.079-6.398 25.76 25.76 0 0 1 17.482 7.902A26.1 26.1 0 0 1 57.778 32" clip-rule="evenodd"/></g><defs><clipPath id="a"><path fill="#fff" d="M0 0h64v64H0z"/></clipPath></defs></svg>
